Icons/com_cubeactive_qnotelistfree.svg

<svg viewBox="0 0 48 48" xmlns:xlink="http://www.w3.org/1999/xlink">
 <defs>
  <linearGradient id="0">
   <stop stop-opacity="0"/>
   <stop offset="1"/>
  </linearGradient>
  <linearGradient xlink:href="#0" id="1" gradientUnits="userSpaceOnUse" gradientTransform="translate(4e-7,-48)" y1="47" x2="0" y2="1"/>
  <clipPath id="2">
   <g transform="translate(0,-1004.3622)">
    <rect rx="4" y="1005.36" x="1" height="46" width="46" fill="#1890d0"/>
   </g>
  </clipPath>
  <clipPath id="3">
   <g transform="translate(0,-1004.3622)">
    <rect rx="4" y="1005.36" x="1" height="46" width="46" fill="#1890d0"/>
   </g>
  </clipPath>
 </defs>
 <g>
  <g transform="translate(0,-1004.3622)">
   <path d="m 5,1006.3622 c -2.216,0 -4,1.784 -4,4 l 0,37.25 c 0,2.216 1.784,4 4,4 l 38,0 c 2.216,0 4,-1.784 4,-4 l 0,-37.25 c 0,-2.216 -1.784,-4 -4,-4 l -38,0 z m -4,41.5 0,0.5 c 0,2.216 1.784,4 4,4 l 38,0 c 2.216,0 4,-1.784 4,-4 l 0,-0.5 c 0,2.216 -1.784,4 -4,4 l -38,0 c -2.216,0 -4,-1.784 -4,-4 z" opacity="0.02"/>
   <path d="m 1,1047.6122 0,0.25 c 0,2.216 1.784,4 4,4 l 38,0 c 2.216,0 4,-1.784 4,-4 l 0,-0.25 c 0,2.216 -1.784,4 -4,4 l -38,0 c -2.216,0 -4,-1.784 -4,-4 z" opacity="0.05"/>
   <rect width="46" height="46" x="1" y="1005.61" rx="4" opacity="0.1"/>
  </g>
 </g>
 <g>
  <g transform="translate(0,-1004.3622)">
   <rect rx="4" y="1005.36" x="1" height="46" width="46" fill="#39a2cb"/>
  </g>
 </g>
 <g>
  <rect transform="scale(1,-1)" width="46" height="46" x="1" y="-46.998" rx="4" opacity="0.1" fill="url(#1)"/>
 </g>
 <g>
  <g clip-path="url(#2)">
   <g opacity="0.1">
    <g>
     <path d="M 14 12 L 34 12 C 35.105469 12 36 12.894531 36 14 L 36 34 C 36 35.105469 35.105469 36 34 36 L 14 36 C 12.894531 36 12 35.105469 12 34 L 12 14 C 12 12.894531 12.894531 12 14 12 Z M 14 12 "/>
     <path d="M 14 12 C 12.890625 12 12 12.890625 12 14 L 12 34 C 12 35.109375 12.890625 36 14 36 L 24 36 L 24 12 Z M 14 12 "/>
     <path d="M 14 12 C 12.890625 12 12 12.890625 12 14 L 12 34 C 12 35.109375 12.890625 36 14 36 L 15 36 C 13.890625 36 13 35.109375 13 34 L 13 14 C 13 12.890625 13.890625 12 15 12 Z M 14 12 "/>
     <path d="M 33 12 C 34.109375 12 35 12.890625 35 14 L 35 34 C 35 35.109375 34.109375 36 33 36 L 34 36 C 35.109375 36 36 35.109375 36 34 L 36 14 C 36 12.890625 35.109375 12 34 12 Z M 33 12 "/>
     <path d="M 15 14 L 22 14 L 22 15.996094 L 15 15.996094 Z M 15 14 " fill-opacity="0.4"/>
     <path d="M 26 31.996094 L 33.003906 31.996094 L 33.003906 33.996094 L 26 33.996094 Z M 26 31.996094 " fill-opacity="0.4"/>
     <path d="M 15 19 L 33 19 L 33 20 L 15 20 Z M 15 19 " fill-opacity="0.4"/>
     <path d="M 15 22 L 33 22 L 33 23 L 15 23 Z M 15 22 " fill-opacity="0.4"/>
     <path d="M 15 25.015625 L 33 25.015625 L 33 26.015625 L 15 26.015625 Z M 15 25.015625 " fill-opacity="0.4"/>
     <path d="M 15 28 L 33 28 L 33 29 L 15 29 Z M 15 28 " fill-opacity="0.4"/>
    </g>
   </g>
  </g>
 </g>
 <g>
  <g clip-path="url(#3)">
   <g transform="translate(0,-1)">
    <g>
     <path d="M 14 12 L 34 12 C 35.105469 12 36 12.894531 36 14 L 36 34 C 36 35.105469 35.105469 36 34 36 L 14 36 C 12.894531 36 12 35.105469 12 34 L 12 14 C 12 12.894531 12.894531 12 14 12 Z M 14 12 " fill="#ffffff"/>
     <path d="M 14 12 C 12.890625 12 12 12.890625 12 14 L 12 34 C 12 35.109375 12.890625 36 14 36 L 24 36 L 24 12 Z M 14 12 " fill="#fbebcf"/>
     <path d="M 14 12 C 12.890625 12 12 12.890625 12 14 L 12 34 C 12 35.109375 12.890625 36 14 36 L 15 36 C 13.890625 36 13 35.109375 13 34 L 13 14 C 13 12.890625 13.890625 12 15 12 Z M 14 12 " fill="#ffffff"/>
     <path d="M 33 12 C 34.109375 12 35 12.890625 35 14 L 35 34 C 35 35.109375 34.109375 36 33 36 L 34 36 C 35.109375 36 36 35.109375 36 34 L 36 14 C 36 12.890625 35.109375 12 34 12 Z M 33 12 " fill="#fbebcf"/>
     <path d="M 15 14 L 22 14 L 22 15.996094 L 15 15.996094 Z M 15 14 " fill="#2d2d2d" fill-opacity="0.4"/>
     <path d="M 26 31.996094 L 33.003906 31.996094 L 33.003906 33.996094 L 26 33.996094 Z M 26 31.996094 " fill="#2d2d2d" fill-opacity="0.4"/>
     <path d="M 15 19 L 33 19 L 33 20 L 15 20 Z M 15 19 " fill="#2d2d2d" fill-opacity="0.4"/>
     <path d="M 15 22 L 33 22 L 33 23 L 15 23 Z M 15 22 " fill="#2d2d2d" fill-opacity="0.4"/>
     <path d="M 15 25.015625 L 33 25.015625 L 33 26.015625 L 15 26.015625 Z M 15 25.015625 " fill="#2d2d2d" fill-opacity="0.4"/>
     <path d="M 15 28 L 33 28 L 33 29 L 15 29 Z M 15 28 " fill="#2d2d2d" fill-opacity="0.4"/>
    </g>
   </g>
  </g>
 </g>
 <g>
  <g transform="translate(0,-1004.3622)">
   <path d="m 1,1043.3622 0,4 c 0,2.216 1.784,4 4,4 l 38,0 c 2.216,0 4,-1.784 4,-4 l 0,-4 c 0,2.216 -1.784,4 -4,4 l -38,0 c -2.216,0 -4,-1.784 -4,-4 z" opacity="0.1"/>
  </g>
 </g>
</svg>

<svg viewBox="0 0 48 48"><defs><linearGradient id="linearGradient3764" x1="1" x2="47" gradientUnits="userSpaceOnUse" gradientTransform="translate(-48.000001,0.00221467)"><stop stop-color="#3298be" stop-opacity="1"/><stop offset="1" stop-color="#39a2cb" stop-opacity="1"/></linearGradient><clipPath id="clipPath-307703804"><g transform="translate(0,-1004.3622)"><rect rx="4" y="1005.36" x="1" height="46" width="46" fill="#1890d0"/></g></clipPath><clipPath id="clipPath-335590938"><g transform="translate(0,-1004.3622)"><rect rx="4" y="1005.36" x="1" height="46" width="46" fill="#1890d0"/></g></clipPath></defs><g><path d="m 1 43 l 0 0.25 c 0 2.216 1.784 4 4 4 l 38 0 c 2.216 0 4 -1.784 4 -4 l 0 -0.25 c 0 2.216 -1.784 4 -4 4 l -38 0 c -2.216 0 -4 -1.784 -4 -4 z m 0 0.5 l 0 0.5 c 0 2.216 1.784 4 4 4 l 38 0 c 2.216 0 4 -1.784 4 -4 l 0 -0.5 c 0 2.216 -1.784 4 -4 4 l -38 0 c -2.216 0 -4 -1.784 -4 -4 z" opacity="0.02"/><path d="m 1 43.25 l 0 0.25 c 0 2.216 1.784 4 4 4 l 38 0 c 2.216 0 4 -1.784 4 -4 l 0 -0.25 c 0 2.216 -1.784 4 -4 4 l -38 0 c -2.216 0 -4 -1.784 -4 -4 z" opacity="0.05"/><path d="m 1 43 l 0 0.25 c 0 2.216 1.784 4 4 4 l 38 0 c 2.216 0 4 -1.784 4 -4 l 0 -0.25 c 0 2.216 -1.784 4 -4 4 l -38 0 c -2.216 0 -4 -1.784 -4 -4 z" opacity="0.1"/></g><g><rect width="46" height="46" x="-47" y="1" rx="4" transform="matrix(0,-1,1,0,0,0)" fill="url(#linearGradient3764)" fill-opacity="1"/></g><g><g clip-path="url(#clipPath-307703804)"><g opacity="0.1"><!-- color: #39a2cb --><g><path d="m 14 12 l 20 0 c 1.105 0 2 0.895 2 2 l 0 20 c 0 1.105 -0.895 2 -2 2 l -20 0 c -1.105 0 -2 -0.895 -2 -2 l 0 -20 c 0 -1.105 0.895 -2 2 -2 m 0 0" fill="#000"/><path d="m 14 12 c -1.109 0 -2 0.891 -2 2 l 0 20 c 0 1.109 0.891 2 2 2 l 10 0 l 0 -24 m -10 0" fill="#000"/><path d="m 14 12 c -1.109 0 -2 0.891 -2 2 l 0 20 c 0 1.109 0.891 2 2 2 l 1 0 c -1.109 0 -2 -0.891 -2 -2 l 0 -20 c 0 -1.109 0.891 -2 2 -2 m -1 0" fill="#000"/><path d="m 33 12 c 1.109 0 2 0.891 2 2 l 0 20 c 0 1.109 -0.891 2 -2 2 l 1 0 c 1.109 0 2 -0.891 2 -2 l 0 -20 c 0 -1.109 -0.891 -2 -2 -2 m -1 0" fill="#000"/><path d="m 15 14 l 7 0 l 0 1.996 l -7 0 m 0 -1.996" fill-opacity="0.4" fill="#000"/><path d="m 26 31.996 l 7 0 l 0 2 l -7 0 m 0 -2" fill-opacity="0.4" fill="#000"/><path d="m 15 19 l 18 0 l 0 1 l -18 0 m 0 -1" fill-opacity="0.4" fill="#000"/><path d="m 15 22 l 18 0 l 0 1 l -18 0 m 0 -1" fill-opacity="0.4" fill="#000"/><path d="m 15 25.02 l 18 0 l 0 1 l -18 0 m 0 -1" fill-opacity="0.4" fill="#000"/><path d="m 15 28 l 18 0 l 0 1 l -18 0 m 0 -1" fill-opacity="0.4" fill="#000"/></g></g></g></g><g><g clip-path="url(#clipPath-335590938)"><g transform="translate(0,-1)"><!-- color: #39a2cb --><g><path d="m 14 12 l 20 0 c 1.105 0 2 0.895 2 2 l 0 20 c 0 1.105 -0.895 2 -2 2 l -20 0 c -1.105 0 -2 -0.895 -2 -2 l 0 -20 c 0 -1.105 0.895 -2 2 -2 m 0 0" fill="#fff"/><path d="m 14 12 c -1.109 0 -2 0.891 -2 2 l 0 20 c 0 1.109 0.891 2 2 2 l 10 0 l 0 -24 m -10 0" fill="#fbebcf"/><path d="m 14 12 c -1.109 0 -2 0.891 -2 2 l 0 20 c 0 1.109 0.891 2 2 2 l 1 0 c -1.109 0 -2 -0.891 -2 -2 l 0 -20 c 0 -1.109 0.891 -2 2 -2 m -1 0" fill="#fff"/><path d="m 33 12 c 1.109 0 2 0.891 2 2 l 0 20 c 0 1.109 -0.891 2 -2 2 l 1 0 c 1.109 0 2 -0.891 2 -2 l 0 -20 c 0 -1.109 -0.891 -2 -2 -2 m -1 0" fill="#fbebcf"/><path d="m 15 14 l 7 0 l 0 1.996 l -7 0 m 0 -1.996" fill="#2d2d2d" fill-opacity="0.4"/><path d="m 26 31.996 l 7 0 l 0 2 l -7 0 m 0 -2" fill="#2d2d2d" fill-opacity="0.4"/><path d="m 15 19 l 18 0 l 0 1 l -18 0 m 0 -1" fill="#2d2d2d" fill-opacity="0.4"/><path d="m 15 22 l 18 0 l 0 1 l -18 0 m 0 -1" fill="#2d2d2d" fill-opacity="0.4"/><path d="m 15 25.02 l 18 0 l 0 1 l -18 0 m 0 -1" fill="#2d2d2d" fill-opacity="0.4"/><path d="m 15 28 l 18 0 l 0 1 l -18 0 m 0 -1" fill="#2d2d2d" fill-opacity="0.4"/></g></g></g></g><g><g transform="translate(0,-1004.3622)"><path d="m 1 1043.36 0 4 c 0 2.216 1.784 4 4 4 l 38 0 c 2.216 0 4 -1.784 4 -4 l 0 -4 c 0 2.216 -1.784 4 -4 4 l -38 0 c -2.216 0 -4 -1.784 -4 -4 z" opacity="0.1"/></g></g></svg>
